X:52
M:2/4
L:1/8
K:G
|: D>F A>F | "tr"d3f | ed^cB | "tr"A3 G | FD cA | "tr"B>d g2 | e>cB>A | G4 :|

